X:1
T:Khvalitye imya Gospodie
T:Сергeй Рахманинов, 1915
T:Богородице Дево, радуйся
T:Всенощное бдение, Op. 37, No. 6
T:Public Domain
T:Public Domain
T:Public Domain
C:Sergei Rakhmanninov
Z:Public Domain
%%score [ ( 1 2 ) 3 ( 4 5 ) ( 6 7 ) ]
L:1/8
Q:1/4=70
M:4/4
K:F
V:1 treble nm="Сопрано" snm="С."
V:2 treble 
V:3 treble nm="Альт" snm="А."
V:4 treble-8 nm="Тенор" snm="Т."
V:5 treble-8 
V:6 bass nm="Бас" snm="Б."
V:7 bass 
V:1
"^Покойно, легко, очень нежно\nSeparated, easy, very gentle"!p! A2 A2 | (!tenuto!A3 G) F2 A2 | %2
 (G3 F) G4 |!mp! (A!>(!GFA GF) G2!>)! |!pp! A4!<(! A2 GA!<)! |!>(! (B2 A2 G2) FA!>)! | %6
 (G4- GE)!<(! FG!<)! | (AGF!>(!A GF G2)!>)! |!pp! A4!<(! A4!<)! | A6!>(! G2!>)! | (A8- | %11
!<(! A6!>(! G2!<)!!>)! |!pp! AGFA GF G2) |"^–ю.""^–yu." A8 | %14
"^очень нежно – very gently"!pp!"^Бо       –       –       –     го    –    ро       –       –   ди   –   це                                                                              Де         –         во,""^Bo       –       –       –     go   –     ro       –       –   di    –   tse                                                                             Dye        –        vo," c6 AB | %15
!<(! (c2 d4)!>(! c2!<)!!>)! | (A2 c4 e2 |!pp! d8) |!p! d4 (d2 cB) | %19
[M:6/4]"^ра     –       –       –    дуй   –  ся,                       ра          –       –       –          дуй    –      –     ся,                    я       –       –       –         ко""^ra       –       –       –   dui    –  sya,                     ra          –       –       –           dui    –       –    sya,                  ya     –       –       –          ko" (c2!<(! d4) c2 (de [df]2)!<)! | %20
!ff! [eg]8 ([df]2 [ce]2) | ([df]2 [ce]2) (df!>(! e4) [Bd]2!>)! | %22
!p!"^Спа        –       –       –        са                ро       –       –       –     ди       –      ла                е     –    си                 душ            наш    –    их.""^Spa        –       –       –        sa                 ro       –       –       –      di       –       la                ye   –     si                  dush           nash   –   ikh." c8 c4 | %23
 c8!>(! c4!>)! |!pp! c2- c z!p! (A2 G2) (F2 A2) |[M:4/4] (G4 F4) |!pp! G8 |!ppp! !fermata!F8 |] %28
V:2
 x4 | x8 | x8 | x8 | x8 | x8 | x8 | x8 | x8 | x8 | x8 | x8 | x8 | x8 | x8 | x8 | x8 | x8 | x8 | %19
[M:6/4] x12 | x12 | x2 x2 d2 c4 x2 | x12 | x12 | x12 |[M:4/4] x8 | x8 | x8 |] %28
V:3
!p!"^Бо–го –ро    –     ди–це    Де    –    во,      ра   –       –       –    дуй –ся,   Бла-го  –  дат     –      на   –   я                       Ма –""^Bo–go–ro     –     di–tse    Dye  –    vo,       ra   –       –       –    dui –sya,  Bla–go –   dat     –       na  –   ya                     Ma –" F2 F2 | %1
 (!tenuto!F3 E) D2 F2 | (E3 D)!mp! E4 | (F!>(!EDF- FD) E2!>)! |!pp! F4!<(! F2 F2!<)! | %5
!>(! F6 DE!>)! | (F2 E2 DC)!<(! DE!<)! | %7
"^–ри   –       –       –       –   е,    Гос  –   подь         с То  –  бо       –       –       –       –       –       –       –       –       –       –        – ю. Бла-го-сло–""^–ri     –       –       –       –  ye,   Gos –   pod'          s To  –  bo       –       –       –       –       –       –       –       –       –       –       – yu. Bla -go-slo–" (FED!>(!F- FD E2)!>)! | %8
!pp! F4!<(! F4!<)! | (E3 F!>(! E2) D2!>)! | (C3 D C2 B,2 |!<(! C2 D4!>(! E2!<)!!>)! | %12
!pp! FEDF- FD E2) | F2!p! [FA]2 [FA]2 [FA]2 | %14
"^–ве       –       –       –       –          на            Ты               в же     –     нах,                   и        бла–го–сло–вен                   Плод""^–ve       –       –       –       –          na            Tui              v zhe    –    nakh,                  i         bla– go–slo –ven                   Plod" ([FA][EG][DF][FA] [EG][DF] [EG]2) | %15
 [FA]4 [FA][EG][DF][FA] | ([EG][DF] [EG]2) [FA]4- | [FA]2 [EG][FA]!p! [GB]2 [GB][GB] | %18
 [GB][FA][EG][GB] ([FA][EG] [FA]2) | %19
[M:6/4]"^чре – ва        Тво  –  е   –    го,        я       –       –       ко   Спа       –       –       –     са                   ро–ди–ла,""^chre– va        Tvo  – ye  –    vo,       ya      –       –       ko   Spa       –       –       –     sa                   ro– di – la," [FA]2!<(! [EG][FA] [GB][FA] [EG][GB] [FA]G!ff! (AB!<)! | %20
 c3) c (cBAc BA) B2- | B2 BB (BAGB!>(! AF G2!>)! | %22
 A2)!p!"^я – ко Спа  –   са     ро  – ди  – ла,""^ya– ko Spa  –   sa     ro  – di   –  la," AA AG FA GF G2 | %23
 (A4- AGF!>(!A GF G2!>)! |!pp! A2- A) z!p! (F2 E2) (D2 E2) |[M:4/4] (D4 C4) |!pp! B,8 | %27
!ppp! !fermata!A,8 |] %28
V:4
!p! c2 c2 | !tenuto!c4 A2 c2 | (c3 A) c4 |!mp!!>(! (c2 Ac dA) c2!>)! |!pp! c4!<(! c2 c2!<)! | %5
!>(! (d2 c2 B2) A2!>)! | (B2 A2 GA)!<(! B2!<)! | (A3!>(! c dA c2)!>)! |!pp! c4!<(! c4!<)! | %9
 A6!>(! G2!>)! | (E3 F E2 D2 |!<(! E3 F G!>(!A B2!<)!!>)! |!pp! c2 Ac dA c2) |"^–ю.""^–yu." c8 | %14
"^очень нежно – very gently"!pp!"^Бо       –       –       –     го    –    ро       –       –   ди   –   це                                                                              Де         –         во,""^Bo       –       –       –     go   –     ro       –       –   di    –   tse                                                                             Dye        –         vo," c6 AB | %15
!<(! (c2 d4)!>(! c2!<)!!>)! | (A2 c4 e2 |!pp! d8) |!p! d4 (d2 cB) | %19
[M:6/4]"^ра     –       –       –    дуй   –  ся,                       ра          –       –       –          дуй    –      –     ся,                    я       –       –       –         ко""^ra       –       –       –   dui    –  sya,                     ra          –       –       –           dui    –       –    sya,                  ya     –       –       –          ko" (c2!<(! d4) c2 (de [df]2)!<)! | %20
!ff! [eg]8 ([df]2 [ce]2) | ([df]2 [ce]2) (df!>(! e4) d2!>)! | %22
!p!"^Спа      –       са                  ро  – ди – ла,  я–ко Спа –са     ро  – ди – ла                е     –    си                 душ            наш    –    их.""^Spa      –       sa                   ro  – di  –  la,  ya-ko Spa–sa      ro  –  di  – la                ye    –    si                 dush            nash  –    ikh." (f2 e2) (d2 c2) BA B2 | %23
 c2 cc cB A!>(!c BA B2!>)! |!pp! c2- c z!p! c4 A4 |[M:4/4] (G4 F2 E2) |!pp! (D6 C2) | %27
!ppp! !fermata!F8 |] %28
V:5
 x4 | x8 | x8 | x8 | x8 | x8 | x8 | x8 | x8 | x8 | x8 | x8 | x8 | x8 | x8 | x8 | x8 | x8 | x8 | %19
[M:6/4] x12 | x12 | x2 x2 d2 c4 x2 | c4 cB A2 BA B2 | x12 | x2 x2 (A2 G2) A4 |[M:4/4] x8 | x8 | %27
 x8 |] %28
V:6
!p! F,2 F,2 | (!tenuto!F,3 C,) D,2 A,,2 | (C,3 D,) C,4 |!mp! (F,!>(!C,D,A,, B,,D,) C,2!>)! | %4
!pp! F,4!<(! F,2 E,2!<)! |!>(! D,6 C,2!>)! | (D,2 C,2 B,,A,,)!<(! G,,2!<)! | %7
 (D,3!>(! A,, B,,D, C,2)!>)! |!pp! F,4!<(! (F,2 D,2)!<)! | (C,3 D,!>(! C,2) B,,2!>)! | (A,,6 G,,2 | %11
!<(! A,,2 B,,4!>(! C,2!<)!!>)! |!pp! F,C,D,A,, B,,D, C,2) |"^–ю.""^–yu." F,8 | z8 | z8 | z8 | z8 | %18
 z8 | %19
[M:6/4] z8 z2!ff!"^я       –       –       ко  Спа       –       –       –     са                   ро–ди–ла,""^ya     –       –        ko  Spa       –       –       –     sa                   ro– di – la," (A,B, | %20
 C3) C (CB,A,C B,A,) B,2- | B,2 B,B, (B,A,G,!>(!B, A,F, G,2)!>)! | %22
!p!"^я    –       –    ко                 Спа  – са     ро       –       –       –     ди       –      ла               е     –    си                 душ            наш    –    их.""^ya   –      –     ko                 Spa  – sa     ro        –       –       –     di        –       la               ye    –    si                 dush            nash  –    ikh." (A,2 G,2) (F,2 E,2) D,2 C,2 | %23
 (F,2 E,2 D,2!>(! E,2) (D,2 C,2)!>)! |!pp! F,2- F, z!p! (F,2 E,2) (D,2 C,2) |[M:4/4] (B,,4 A,,4) | %26
!pp! (G,,6 C,2) |!ppp! !fermata![F,,C,]8 |] %28
V:7
 x4 | x8 | x8 | x8 | x8 | x8 | x8 | x8 | x8 | x8 | x8 | x8 | x8 | x8 | x8 | x8 | x8 | x8 | x8 | %19
[M:6/4] x12 | x12 | x12 | x12 | F,,8 F,,4 | F,2- F, x x8 |[M:4/4] x8 | x8 | x8 |] %28

